libs/icons/src/svg/video-off.svg

<svg width="16" height="16" viewBox="0 0 16 16" fill="none" xmlns="http://www.w3.org/2000/svg">
<g clip-path="url(#clip0_3_3745)">
<path fill-rule="evenodd" clip-rule="evenodd" d="M15.1333 1.80001C15.4 1.53334 15.4 1.13334 15.1333 0.866672C14.8667 0.600005 14.4667 0.600005 14.2 0.866672L11.3333 3.73334C11.2667 3.26667 11.0667 2.86667 10.7333 2.60001C10.4 2.20001 9.86667 2.00001 9.33333 2.00001H2C1.46667 2.00001 0.933333 2.20001 0.6 2.60001C0.2 2.93334 0 3.46667 0 4V12C0 12.5333 0.2 13.0667 0.6 13.4C0.8 13.6 1 13.7333 1.2 13.8L0.866667 14.1333C0.6 14.4 0.6 14.8 0.866667 15.0667C1.13333 15.3333 1.53333 15.3333 1.8 15.0667L15.1333 1.80001ZM2.4 12.6667L10 5.06667V4C10 3.8 9.93333 3.66667 9.8 3.53334C9.66667 3.40001 9.53333 3.33334 9.33333 3.33334H2C1.8 3.33334 1.66667 3.40001 1.53333 3.53334C1.4 3.66667 1.33333 3.8 1.33333 4V12C1.33333 12.2 1.4 12.3333 1.53333 12.4667C1.66667 12.6 1.8 12.6667 2 12.6667H2.4ZM15.7333 4.13334C15.9333 4.26667 16 4.46667 16 4.66667V11.3333C16 11.5333 15.9333 11.7333 15.7333 11.8667C15.6 12 15.3333 12 15.1333 12L11.3333 10.8667V12C11.3333 12.5333 11.1333 13.0667 10.7333 13.4C10.4 13.8 9.86667 14 9.33333 14H5.46667C5.06667 14 4.8 13.7333 4.8 13.3333C4.8 12.9333 5.06667 12.6667 5.46667 12.6667H9.33333C9.53333 12.6667 9.66667 12.6 9.8 12.4667C9.93333 12.3333 10 12.2 10 12V10C10 9.8 10.0667 9.6 10.2667 9.46667C10.4 9.33334 10.6667 9.33334 10.8667 9.33334L14.6667 10.4V5.53334L13.8667 5.73334C13.5333 5.86667 13.1333 5.6 13.0667 5.26667C12.9333 4.93334 13.2 4.53334 13.5333 4.46667L15.1333 4C15.3333 4 15.6 4 15.7333 4.13334Z" fill="#202327"/>
</g>
<defs>
<clipPath id="clip0_3_3745">
<rect width="16" height="16" fill="white"/>
</clipPath>
</defs>
</svg>

<svg xmlns="http://www.w3.org/2000/svg" viewBox="0 0 16 16" class="sageicon"><path fill-rule="evenodd" d="M15.133 1.8a.644.644 0 0 0 0-.933.644.644 0 0 0-.933 0l-2.867 2.866c-.066-.466-.266-.866-.6-1.133-.333-.4-.866-.6-1.4-.6H2c-.533 0-1.067.2-1.4.6-.4.333-.6.867-.6 1.4v8c0 .533.2 1.067.6 1.4.2.2.4.333.6.4l-.333.333a.645.645 0 0 0 0 .934.645.645 0 0 0 .933 0L15.133 1.8ZM2.4 12.667l7.6-7.6V4c0-.2-.067-.333-.2-.467a.605.605 0 0 0-.467-.2H2c-.2 0-.333.067-.467.2a.605.605 0 0 0-.2.467v8c0 .2.067.333.2.467.134.133.267.2.467.2h.4Zm13.333-8.534c.2.134.267.334.267.534v6.666c0 .2-.067.4-.267.534-.133.133-.4.133-.6.133l-3.8-1.133V12c0 .533-.2 1.067-.6 1.4-.333.4-.866.6-1.4.6H5.467c-.4 0-.667-.267-.667-.667s.267-.666.667-.666h3.866c.2 0 .334-.067.467-.2A.605.605 0 0 0 10 12v-2c0-.2.067-.4.267-.533.133-.134.4-.134.6-.134l3.8 1.067V5.533l-.8.2c-.334.134-.734-.133-.8-.466-.134-.334.133-.734.466-.8l1.6-.467c.2 0 .467 0 .6.133Z"/></svg>
